X:41
T:Polonese. THO5.041, The
M:6/8
L:1/8
B:Thompson's Complete Collection of 200 Favourite Dances Vol.5
F:https://www.libraryofdance.org/manuals/1780c-Thompson-Compleat-5.pdf
Z:vmp. Peter Dunk 2024
Q:3/8=100
K:G
d|gfg d2c|BAB G2A|Bcd dcB|B3-A2d|
gfg dgb|aga def|egf ed^c|d3-d2:|
|:d|fef dgb|aga d2f|gfe dcB|B3-A2 d|
gfg d2c|BAB G2D|EcB AGF|G3-G2:|
W:
W:Cast off 1 Couple: lead up the bottom and cast up one ./.
W:lead through the top and cast off ./:
W:hands 6 round :/.
W:right and left at top :/:

